X:1
T:Title
%%score { ( 1 4 ) | ( 2 3 ) }
L:1/8
M:4/4
K:G
V:1 treble nm="Grand Piano"
V:4 treble 
V:2 bass 
V:3 bass 
V:1
 z4 z2[Q:1/4=100] D2 | G2 GG G2 BG | [FA]2 [FA]2 B2 dd | d3 B G2 B2 |[M:3/4] [FA]6 |[M:1/4] D2 | %6
[M:4/4] G2 GG G2 BG | [FA]2 [FA]2 B2 dd | [DGd]3 [EGc] [DGB]2 .[DFA]2 |[M:3/4] [B,G]6 | %10
[M:1/4] [DGB][DAc] |[M:4/4] [DBd]3 [ce] [Bd]2 [GB]2 | [Ac]3 [GB] [FA]2 [FA][FA] | B2 d2 d2 B2 | %14
[M:3/4] [DFA]6 |[M:1/4] [DG][DFA] |[M:4/4] [DGB]3 [DFc] [DGd]2 [B,G]2 |[M:9/8] A3 z3 z3 | %18
[M:4/4] z4 z2 [FA]2 |[M:3/4] G6 |] %20
V:2
 z4 z2 [G,B,]2 | [G,B,D]2 [G,B,D][G,B,D] [G,B,D]2[K:treble] [G,DG][G,B,] | %2
 [D,D]2 [D,D]2[K:treble] [G,DG]2 [G,B,G][G,B,G] | [G,B,G]3 [G,DG] [B,D]2 [G,DG]2 | %4
[M:3/4][K:bass] [D,D]6 |[M:1/4] [F,C]2 | %6
[M:4/4] [G,B,D]2 DD[K:treble] [G,B,D]2 [G,DG][K:bass][G,B,] | %7
 [D,D]2 [D,D]2[K:treble] [G,DG]2 [G,B,G][G,B,G] | B,,3 C, D,2 z C |[M:3/4] G,6 |[M:1/4] G,G, | %11
[M:4/4] G,3 [G,D] [G,D]2 [G,D]2 | [D,D]4 [D,D]2 [D,D][D,D] | [G,DG]2 [B,DG]2 [A,DF]2 [G,DG]2 | %14
[M:3/4][K:bass] D,2 D,E, D,C, |[M:1/4] B,,A,, |[M:4/4] G,,3 A,, B,,2 G,,2 | %17
[M:9/8] z3 G [C,C]2- [C,C][C,C][C,C] |[M:4/4] [D,B,]3 [D,D] [D,D]2 .[D,D]2 |[M:3/4] [G,B,]6 |] %20
V:3
 x8 | x6[K:treble] x2 | x4[K:treble] x4 | x8 |[M:3/4][K:bass] x6 |[M:1/4] x2 | %6
[M:4/4] z2 [G,B,]2[K:treble] z4[K:bass] | x4[K:treble] x4 | z4 z2 D,2 |[M:3/4] x6 |[M:1/4] x2 | %11
[M:4/4] x8 | x8 | x8 |[M:3/4][K:bass] x6 |[M:1/4] x2 |[M:4/4] x8 |[M:9/8] .C,6 z3 |[M:4/4] x8 | %19
[M:3/4] x6 |] %20
V:4
 x8 | x8 | x8 | x8 |[M:3/4] x6 |[M:1/4] x2 |[M:4/4] x8 | x8 | x8 |[M:3/4] x6 |[M:1/4] x2 | %11
[M:4/4] x8 | x8 | x8 |[M:3/4] x6 |[M:1/4] x2 |[M:4/4] x8 |[M:9/8] [CE]3- [CE] [Ec]2- [Ec][EA][EA] | %18
[M:4/4] [DG]3 [GB] [GB]2 z C |[M:3/4] x6 |] %20

